VARIANT
CUT[Siehgst as net, da kimmt er, der mit seim Zylinder]
REG[Europa, Mitteleuropa, Deutschland, Ober - Franken, Koednitz]
KEY[V0003E 08  F 2/4]
MEL[-5-5-6-5  -7_-7_
    -5-5-6-5  1_1_
    3321  1-7-4_
    11-7-6  -6-5-3_ //] >>
FCT[Geselligkeits - Lied, Scherz]
